icons/desktop/16/svg/arrow-down-line-16.svg

<svg width="16" height="16" viewBox="0 0 16 16" fill="none" xmlns="http://www.w3.org/2000/svg">
<path d="M13.1076 11.0128C13.5144 10.9269 13.9083 11.2008 13.9855 11.6076C14.0635 12.0146 13.7978 12.4075 13.3908 12.4855C11.6159 12.8265 9.80305 13.0001 8.00014 13.0001C6.19514 13.0001 4.38056 12.8265 2.60756 12.4855C2.20178 12.4073 1.93486 12.0144 2.01284 11.6076C2.08998 11.2008 2.48192 10.9269 2.89077 11.0128C6.24767 11.6578 9.74266 11.6578 13.1076 11.0128Z" fill="black"/>
<path d="M12.7189 3.21987C13.0118 2.92695 13.4864 2.92712 13.7794 3.21987C13.9264 3.36587 14.0001 3.55814 14.0001 3.75014C14.0001 3.94206 13.9254 4.13448 13.7794 4.28042L9.23647 8.82436C8.90558 9.15501 8.46586 9.33699 7.99917 9.33706C7.53226 9.33706 7.09184 9.15523 6.76186 8.82436L2.21889 4.28042C1.92614 3.9874 1.92598 3.51279 2.21889 3.21987C2.51181 2.92695 2.98642 2.92712 3.27944 3.21987L7.82143 7.76284C7.88543 7.82684 7.96017 7.83608 7.99917 7.83608C8.03823 7.83604 8.11206 7.8267 8.17592 7.76284L12.7189 3.21987Z" fill="black"/>
</svg>

<!-- This Source Code Form is subject to the terms of the Mozilla Public
   - License, v. 2.0. If a copy of the MPL was not distributed with this
   - file, You can obtain one at http://mozilla.org/MPL/2.0/. -->
<svg xmlns="http://www.w3.org/2000/svg" width="16" height="16" fill="context-fill" fill-opacity="context-fill-opacity" viewBox="0 0 16 16">
    <path d="M13.108 11.013c.406-.086.8.188.877.595a.75.75 0 0 1-.594.877A28.6 28.6 0 0 1 8 13c-1.806 0-3.62-.174-5.393-.514a.75.75 0 0 1-.595-.878.74.74 0 0 1 .878-.595c3.357.645 6.852.645 10.217 0M12.719 3.22a.75.75 0 0 1 1.06 1.06L9.236 8.824c-.33.331-.77.513-1.237.513s-.907-.182-1.237-.513L2.219 4.28a.75.75 0 0 1 1.06-1.06l4.542 4.543a.25.25 0 0 0 .355 0z" />
</svg>
